X: 30329
T: Old Molly Oxford
R: reel
M: 4/4
K: Dmajor
A2|:d2cd e2f2|e2dc Bcd2|c2A2 B2G2|A2AG FGA2|
d2dc B2AG|F2A2 d4|F2(3FED E2C2|1 D4 D2A2:|2 D4 D4||
|:AGFE D2EF|G2A2 B2c2|dcBA G2A2|Bcdf e2ce|
d2Bd c2A2|BGEF G2B2|AGFE D2EF|G4 G4:|

